icons/git-compare-24.svg

<svg xmlns="http://www.w3.org/2000/svg" width="24" height="24" viewBox="0 0 24 24">
  <defs/>
  <path d="M16.5,19.25 C16.5,17.455 17.955,16 19.75,16 C21.545,16 23,17.455 23,19.25 C23,21.045 21.545,22.5 19.75,22.5 C17.955,22.5 16.5,21.045 16.5,19.25 Z M19.75,17.5 C18.784,17.5 18,18.284 18,19.25 C18,20.216 18.784,21 19.75,21 C20.716,21 21.5,20.216 21.5,19.25 C21.5,18.284 20.716,17.5 19.75,17.5 Z"/>
  <path d="M13.905,1.72 C14.197,2.013 14.197,2.487 13.905,2.78 L12.685,4 L16.75,4 C18.821,4 20.5,5.679 20.5,7.75 L20.5,16.5 C20.5,16.914 20.164,17.25 19.75,17.25 C19.336,17.25 19,16.914 19,16.5 L19,7.75 C19,6.507 17.993,5.5 16.75,5.5 L12.686,5.5 L13.906,6.72 C14.19,7.014 14.186,7.482 13.896,7.771 C13.607,8.061 13.139,8.064 12.845,7.78 L10.345,5.28 C10.053,4.987 10.053,4.513 10.345,4.22 L12.845,1.72 C13.138,1.428 13.612,1.428 13.905,1.72 Z M7.5,4.75 C7.5,6.545 6.045,8 4.25,8 C2.455,8 1,6.545 1,4.75 C1,2.955 2.455,1.5 4.25,1.5 C6.045,1.5 7.5,2.955 7.5,4.75 Z M4.25,6.5 C5.216,6.5 6,5.716 6,4.75 C6,3.784 5.216,3 4.25,3 C3.284,3 2.5,3.784 2.5,4.75 C2.5,5.716 3.284,6.5 4.25,6.5 Z"/>
  <path d="M10.095,22.28 C9.803,21.987 9.803,21.513 10.095,21.22 L11.315,20 L7.25,20 C5.179,20 3.5,18.321 3.5,16.25 L3.5,7.5 C3.5,7.086 3.836,6.75 4.25,6.75 C4.664,6.75 5,7.086 5,7.5 L5,16.25 C5,17.493 6.007,18.5 7.25,18.5 L11.314,18.5 L10.094,17.28 C9.899,17.092 9.821,16.813 9.89,16.551 C9.959,16.288 10.163,16.084 10.426,16.015 C10.688,15.947 10.967,16.025 11.155,16.22 L13.655,18.72 C13.947,19.013 13.947,19.487 13.655,19.78 L11.155,22.28 C10.862,22.572 10.388,22.572 10.095,22.28 Z"/>
</svg>

<svg xmlns="http://www.w3.org/2000/svg" width="24" height="24" viewBox="0 0 24 24"><path fill-rule="evenodd" d="M19.75 17.5a1.75 1.75 0 100 3.5 1.75 1.75 0 000-3.5zm-3.25 1.75a3.25 3.25 0 116.5 0 3.25 3.25 0 01-6.5 0z"/><path fill-rule="evenodd" d="M13.905 1.72a.75.75 0 010 1.06L12.685 4h4.065a3.75 3.75 0 013.75 3.75v8.75a.75.75 0 01-1.5 0V7.75a2.25 2.25 0 00-2.25-2.25h-4.064l1.22 1.22a.75.75 0 01-1.061 1.06l-2.5-2.5a.75.75 0 010-1.06l2.5-2.5a.75.75 0 011.06 0zM4.25 6.5a1.75 1.75 0 100-3.5 1.75 1.75 0 000 3.5zM7.5 4.75a3.25 3.25 0 11-6.5 0 3.25 3.25 0 016.5 0z"/><path fill-rule="evenodd" d="M10.095 22.28a.75.75 0 010-1.06l1.22-1.22H7.25a3.75 3.75 0 01-3.75-3.75V7.5a.75.75 0 011.5 0v8.75a2.25 2.25 0 002.25 2.25h4.064l-1.22-1.22a.75.75 0 111.061-1.06l2.5 2.5a.75.75 0 010 1.06l-2.5 2.5a.75.75 0 01-1.06 0z"/></svg>
